Dominus_Funeral/symbolic/status/display-brightness-symbolic.svg

<svg xmlns="http://www.w3.org/2000/svg" width="24" height="24" viewBox="0 0 6.35 6.35"><path d="M3.09.56a.09.09 0 0 0-.09.1v.51c0 .05.04.1.09.1h.17c.05 0 .09-.05.09-.1V.65a.09.09 0 0 0-.09-.09H3.1zm-1.65.68a.09.09 0 0 0-.05.03l-.12.12a.09.09 0 0 0 0 .12l.37.37a.09.09 0 0 0 .12 0l.12-.12a.09.09 0 0 0 0-.12l-.37-.37a.09.09 0 0 0-.06-.03zm3.45 0a.09.09 0 0 0-.05.03l-.37.37a.09.09 0 0 0 0 .12l.12.12a.09.09 0 0 0 .12 0l.37-.37a.09.09 0 0 0 0-.12l-.12-.12a.09.09 0 0 0-.06-.03.09.09 0 0 0-.01 0zm-1.72.72a1.22 1.22 0 0 0-1.21 1.21A1.22 1.22 0 0 0 3.17 4.4 1.22 1.22 0 0 0 4.4 3.17a1.22 1.22 0 0 0-1.22-1.21zM.65 3a.09.09 0 0 0-.09.09v.17c0 .05.04.09.1.09h.51c.05 0 .1-.04.1-.09V3.1a.09.09 0 0 0-.1-.09H.65zm4.53 0a.09.09 0 0 0-.1.09v.17c0 .05.05.09.1.09h.52c.05 0 .09-.04.09-.09V3.1a.09.09 0 0 0-.1-.09h-.51zM1.69 4.44a.09.09 0 0 0-.05.03l-.37.37a.09.09 0 0 0 0 .12l.12.12a.09.09 0 0 0 .12 0l.37-.37a.09.09 0 0 0 0-.12l-.12-.12a.09.09 0 0 0-.06-.03.09.09 0 0 0-.01 0zm2.95 0a.09.09 0 0 0-.05.03l-.12.12a.09.09 0 0 0 0 .12l.37.37a.09.09 0 0 0 .12 0l.12-.12a.09.09 0 0 0 0-.12l-.37-.37a.09.09 0 0 0-.06-.03zM3.1 5.1a.09.09 0 0 0-.09.09v.52c0 .05.04.09.09.09h.17c.05 0 .09-.04.09-.1v-.51a.09.09 0 0 0-.09-.1H3.1z" fill="gray"/></svg>

<?xml version="1.0" encoding="UTF-8" standalone="no"?>
<svg
   xmlns:dc="http://purl.org/dc/elements/1.1/"
   xmlns:cc="http://creativecommons.org/ns#"
   xmlns:rdf="http://www.w3.org/1999/02/22-rdf-syntax-ns#"
   xmlns:svg="http://www.w3.org/2000/svg"
   xmlns="http://www.w3.org/2000/svg"
   xmlns:sodipodi="http://sodipodi.sourceforge.net/DTD/sodipodi-0.dtd"
   xmlns:inkscape="http://www.inkscape.org/namespaces/inkscape"
   width="24"
   height="24"
   viewBox="0 0 6.35 6.35"
   version="1.1"
   id="svg4"
   sodipodi:docname="display-brightness-symbolic.svg"
   inkscape:version="0.92.4 (5da689c313, 2019-01-14)">
  <metadata
     id="metadata10">
    <rdf:RDF>
      <cc:Work
         rdf:about="">
        <dc:format>image/svg+xml</dc:format>
        <dc:type
           rdf:resource="http://purl.org/dc/dcmitype/StillImage" />
        <dc:title></dc:title>
      </cc:Work>
    </rdf:RDF>
  </metadata>
  <defs
     id="defs8" />
  <sodipodi:namedview
     pagecolor="#ffffff"
     bordercolor="#666666"
     borderopacity="1"
     objecttolerance="10"
     gridtolerance="10"
     guidetolerance="10"
     inkscape:pageopacity="0"
     inkscape:pageshadow="2"
     inkscape:window-width="1085"
     inkscape:window-height="480"
     id="namedview6"
     showgrid="false"
     inkscape:zoom="9.8333333"
     inkscape:cx="1.0677966"
     inkscape:cy="12"
     inkscape:window-x="0"
     inkscape:window-y="25"
     inkscape:window-maximized="0"
     inkscape:current-layer="svg4" />
  <path
     d="M 3.09,0.56 A 0.09,0.09 0 0 0 3,0.66 v 0.51 c 0,0.05 0.04,0.1 0.09,0.1 h 0.17 c 0.05,0 0.09,-0.05 0.09,-0.1 V 0.65 A 0.09,0.09 0 0 0 3.26,0.56 H 3.1 Z M 1.44,1.24 A 0.09,0.09 0 0 0 1.39,1.27 L 1.27,1.39 a 0.09,0.09 0 0 0 0,0.12 l 0.37,0.37 a 0.09,0.09 0 0 0 0.12,0 L 1.88,1.76 a 0.09,0.09 0 0 0 0,-0.12 L 1.51,1.27 A 0.09,0.09 0 0 0 1.45,1.24 Z m 3.45,0 A 0.09,0.09 0 0 0 4.84,1.27 L 4.47,1.64 a 0.09,0.09 0 0 0 0,0.12 l 0.12,0.12 a 0.09,0.09 0 0 0 0.12,0 L 5.08,1.51 a 0.09,0.09 0 0 0 0,-0.12 L 4.96,1.27 A 0.09,0.09 0 0 0 4.9,1.24 0.09,0.09 0 0 0 4.89,1.24 Z M 3.17,1.96 A 1.22,1.22 0 0 0 1.96,3.17 1.22,1.22 0 0 0 3.17,4.4 1.22,1.22 0 0 0 4.4,3.17 1.22,1.22 0 0 0 3.18,1.96 Z M 0.65,3 A 0.09,0.09 0 0 0 0.56,3.09 v 0.17 c 0,0.05 0.04,0.09 0.1,0.09 h 0.51 c 0.05,0 0.1,-0.04 0.1,-0.09 V 3.1 A 0.09,0.09 0 0 0 1.17,3.01 H 0.65 Z m 4.53,0 a 0.09,0.09 0 0 0 -0.1,0.09 v 0.17 c 0,0.05 0.05,0.09 0.1,0.09 H 5.7 c 0.05,0 0.09,-0.04 0.09,-0.09 V 3.1 A 0.09,0.09 0 0 0 5.69,3.01 H 5.18 Z M 1.69,4.44 A 0.09,0.09 0 0 0 1.64,4.47 L 1.27,4.84 a 0.09,0.09 0 0 0 0,0.12 l 0.12,0.12 a 0.09,0.09 0 0 0 0.12,0 L 1.88,4.71 a 0.09,0.09 0 0 0 0,-0.12 L 1.76,4.47 A 0.09,0.09 0 0 0 1.7,4.44 a 0.09,0.09 0 0 0 -0.01,0 z m 2.95,0 A 0.09,0.09 0 0 0 4.59,4.47 L 4.47,4.59 a 0.09,0.09 0 0 0 0,0.12 l 0.37,0.37 a 0.09,0.09 0 0 0 0.12,0 L 5.08,4.96 a 0.09,0.09 0 0 0 0,-0.12 L 4.71,4.47 A 0.09,0.09 0 0 0 4.65,4.44 Z M 3.1,5.1 A 0.09,0.09 0 0 0 3.01,5.19 V 5.71 C 3.01,5.76 3.05,5.8 3.1,5.8 H 3.27 C 3.32,5.8 3.36,5.76 3.36,5.7 V 5.19 A 0.09,0.09 0 0 0 3.27,5.09 H 3.1 Z"
     id="path2"
     inkscape:connector-curvature="0"
     style="fill:#808080" />
</svg>
